icons/contact_lenses.svg

<svg width="48" height="48" viewBox="0 0 48 48" fill="none" xmlns="http://www.w3.org/2000/svg">
<path fill-rule="evenodd" clip-rule="evenodd" d="M34.9847 9.68621C34.9948 9.62455 35 9.56247 35 9.5C35 9.47225 34.999 9.44457 34.9969 9.41697C34.999 9.3449 35 9.27256 35 9.19995H34.9601C34.4818 7.40741 29.7575 6 24 6C18.2425 6 13.5182 7.40741 13.0398 9.19995H13C13 9.27256 13.001 9.3449 13.003 9.41697C13.001 9.44457 13 9.47225 13 9.5C13 9.56247 13.0051 9.62455 13.0153 9.68621C13.3262 14.6058 18.3298 18.2 24 18.2C24.0763 18.2 24.1525 18.1993 24.2286 18.198C24.1312 18.2097 24.0333 18.223 23.9348 18.2381C21.6844 18.5822 19.2805 19.8054 16.793 22.2929L5.79291 33.2929L7.20741 34.7068L18.2072 23.7071C20.4697 21.4446 22.5032 20.4803 24.2372 20.2151C25.9701 19.9501 27.5183 20.3658 28.8429 21.0704C30.1768 21.7799 31.2605 22.7715 32.0188 23.6034C32.288 23.8988 32.5128 24.1702 32.6898 24.396L32.5669 24.5189C31.3407 23.9293 29.9572 23.9286 28.656 24.2761C26.9595 24.7291 25.2955 25.7903 23.9803 27.1054C22.6682 28.4175 21.6187 30.0677 21.2632 31.7724C21.009 32.9913 21.1146 34.2417 21.725 35.3609L16.2929 40.7929L17.7071 42.2071L35.2743 24.6399L34.8437 23.9632L34 24.5C34.8437 23.9632 34.8431 23.9622 34.8431 23.9622L34.8423 23.961L34.8403 23.9578L34.8342 23.9485L34.8144 23.9182C34.7978 23.893 34.7743 23.8579 34.7441 23.8138C34.6837 23.7256 34.5963 23.6014 34.483 23.4491C34.2566 23.1447 33.9251 22.7259 33.4969 22.2561C32.6458 21.3224 31.3857 20.1576 29.7822 19.3047C28.5096 18.6278 27.0066 18.1407 25.3231 18.1344C30.4279 17.6266 34.6982 14.219 34.9847 9.68621ZM33.104 9.11164C33.104 9.11164 33.1011 9.11677 33.0921 9.12679C33.099 9.11662 33.104 9.11164 33.104 9.11164ZM32.5602 9.5C32.2332 9.32063 31.7756 9.12313 31.1717 8.93098C29.4259 8.37548 26.89 8 24 8C21.11 8 18.5741 8.37548 16.8282 8.93098C16.2243 9.12313 15.7668 9.32063 15.4397 9.5C15.7668 9.67937 16.2243 9.87687 16.8282 10.069C18.5741 10.6245 21.11 11 24 11C26.89 11 29.4259 10.6245 31.1717 10.069C31.7756 9.87687 32.2332 9.67938 32.5602 9.5ZM14.8959 9.11164C14.8959 9.11164 14.901 9.11662 14.9079 9.1268C14.8988 9.11676 14.8959 9.11164 14.8959 9.11164ZM32.3581 11.7755C30.3407 12.525 27.3446 13 24 13C20.6553 13 17.6593 12.525 15.6418 11.7755C16.936 14.2931 20.0728 16.2 24 16.2C27.9272 16.2 31.064 14.2931 32.3581 11.7755ZM23.2488 33.837L30.9919 26.094C30.4452 25.9919 29.834 26.0316 29.1719 26.2084C27.8841 26.5523 26.5168 27.3973 25.3945 28.5196C24.2691 29.6451 23.4749 30.9636 23.221 32.1807C23.0992 32.7647 23.0998 33.3207 23.2488 33.837Z" fill="black"/>
</svg>

<svg
  xmlns="http://www.w3.org/2000/svg"
  width="24"
  height="24"
  viewBox="0 0 24 24"
  fill="none"
  stroke="currentColor"
  stroke-width="2"
  stroke-linecap="round"
  stroke-linejoin="round"
>
  <path
    fill-rule="evenodd"
    d="M34.985 9.686a1.2 1.2 0 0 0 .012-.269Q35 9.309 35 9.2h-.04C34.482 7.407 29.757 6 24 6S13.518 7.407 13.04 9.2H13q0 .11.003.217a1.2 1.2 0 0 0 .012.27C13.326 14.605 18.33 18.2 24 18.2q.114 0 .229-.002a9 9 0 0 0-.294.04c-2.25.344-4.654 1.567-7.142 4.055l-11 11 1.414 1.414 11-11c2.263-2.262 4.296-3.227 6.03-3.492s3.281.15 4.606.855c1.334.71 2.418 1.701 3.176 2.533.269.296.494.567.67.793l-.122.123c-1.226-.59-2.61-.59-3.911-.243-1.697.453-3.36 1.514-4.676 2.83-1.312 1.311-2.361 2.962-2.717 4.666-.254 1.22-.148 2.47.462 3.589l-5.432 5.432 1.414 1.414L35.274 24.64l-.43-.677L34 24.5c.844-.537.843-.538.843-.538v-.001l-.003-.003-.006-.01-.02-.03-.07-.104c-.06-.088-.148-.213-.261-.365a16 16 0 0 0-.986-1.193c-.851-.934-2.111-2.098-3.715-2.951-1.272-.677-2.775-1.164-4.459-1.17 5.105-.508 9.375-3.916 9.662-8.449m-1.881-.574-.012.015zm-.544.388a8 8 0 0 0-1.388-.569C29.426 8.375 26.89 8 24 8s-5.426.375-7.172.931a8 8 0 0 0-1.388.569c.327.18.784.377 1.388.569C18.574 10.624 21.11 11 24 11s5.426-.376 7.172-.931A8 8 0 0 0 32.56 9.5m-17.664-.388.012.015q-.013-.015-.012-.015m17.462 2.663C30.341 12.526 27.345 13 24 13s-6.34-.475-8.358-1.225C16.936 14.293 20.072 16.2 24 16.2c3.927 0 7.064-1.907 8.358-4.424m-9.11 22.062 7.744-7.743c-.547-.102-1.158-.062-1.82.114-1.288.344-2.655 1.19-3.777 2.312-1.126 1.125-1.92 2.444-2.174 3.66-.122.585-.121 1.14.028 1.657"
    clip-rule="evenodd"
  />
</svg>
